X: 2015
T: La Fountain Bleu.
%R: march
B: Henry Playford "Apollo's Banquet", London 1687 (5th Edition)
F: https://archive.org/details/apollosbanquetco01rugg
Z: 2017 John Chambers <jc:trillian.mit.edu>
M: C|
L: 1/8
K: F
% - - - - - - - - - -
c2 |\
f2fg a2a2 | b2a2 g2f2 |\
d2d2 e3f | g6 :: c2 |\
d2e2 f2ed | ^c3d e2A2 |
a>ba>g f>gf>e | d2 d4 e>f |\
g>ag>f e>fe>d | c2d>e f2e2 |\
f2g2 a2b2 | g3f f2 |]
% - - - - - - - - - -

%%sep 1 1 500
%%sep 1 1 500

